dist/static/icon_linkedin.svg

<svg enable-background="new 0 0 36.1 36" viewBox="0 0 36.1 36" xmlns="http://www.w3.org/2000/svg"><path d="m29.4 4.6h-22.8c-1.1 0-2 .9-2 1.9v23c0 1 .9 1.9 2 1.9h22.9c1.1 0 2-.9 2-1.9v-23c0-1-.9-1.9-2.1-1.9zm-16.8 22.9h-4v-12.9h4zm-2.1-14.7c-1.3 0-2.3-1-2.3-2.3s1-2.2 2.3-2.2 2.3 1 2.3 2.3-1 2.2-2.3 2.2zm17 14.7h-4v-6.3c0-1.5 0-3.4-2.1-3.4s-2.4 1.6-2.4 3.3v6.3h-4v-12.8h3.8v1.7h.1c.5-1 1.9-2.1 3.8-2.1 4 0 4.8 2.7 4.8 6.1z"/></svg>

<?xml version="1.0" encoding="utf-8"?>
<!-- Generator: Adobe Illustrator 21.0.2, SVG Export Plug-In . SVG Version: 6.00 Build 0)  -->
<svg version="1.1" id="Layer_1" xmlns="http://www.w3.org/2000/svg" xmlns:xlink="http://www.w3.org/1999/xlink" x="0px" y="0px"
	 viewBox="0 0 36.1 36" style="enable-background:new 0 0 36.1 36;" xml:space="preserve">
<g>
	<g>
		<path d="M29.4,4.6H6.6c-1.1,0-2,0.9-2,1.9v23c0,1,0.9,1.9,2,1.9h22.9c1.1,0,2-0.9,2-1.9v-23C31.5,5.5,30.6,4.6,29.4,4.6z
			 M12.6,27.5h-4V14.6h4L12.6,27.5L12.6,27.5z M10.5,12.8c-1.3,0-2.3-1-2.3-2.3s1-2.2,2.3-2.2s2.3,1,2.3,2.3S11.8,12.8,10.5,12.8z
			 M27.5,27.5h-4v-6.3c0-1.5,0-3.4-2.1-3.4s-2.4,1.6-2.4,3.3v6.3h-4V14.6h3.8v1.7h0.1c0.5-1,1.9-2.1,3.8-2.1c4,0,4.8,2.7,4.8,6.1
			V27.5z"/>
	</g>
</g>
</svg>
